X: 1
T: La Belle Cathrine  v.1
P: piffero primo b0024
O: safd 015
F: http://ancients.sudburymuster.org/mus/ssp/pdf/brandywF.pdf
Z: 2019 John Chambers <jc:trillian.mit.edu>
M: 2/4
L: 1/16
K: D
z2 |\
d4 {e}fede | f2d2 d2c2 | B2e2 efed | c2A2 A2c2 |\
d4 {e}fede | f2d2 d2c2 | B2e2 dcBA | d4   d2  :|
|: z2 |\
F2A2  A2G2 | F2A2 A2G2 | F2A2 efed | c2A2 A2G2 |\
FGAB  A2F2 | F2A2 A2Bc | d3e  gfed | B2c2 d2  :|


